def movement():
  while(True):
    movej([3.526306629180908, -1.6873241863646449, -2.2410497665405273, -1.3004105848125, -1.2147324720965784, 4.76837158203125e-07],a = 0.35,v = 0.25,r = 0.02)
    movej([3.439040166581192, -1.6000577237649285, -2.153783303940811, -1.2131441222127837, -1.1274660094968618, -0.013353838106465917],a = 0.35,v = 0.25,r = 0.02)
    movej([3.351773703981475, -1.512791261165212, -2.0665168413410946, -1.1258776596130673, -1.0401995468971454, 0.054990931762662294],a = 0.35,v = 0.25,r = 0.02)
    movej([3.2645072413817586, -1.4255247985654955, -1.979250378741378, -1.0386111970133507, -0.952933084297429, -0.027469955504973404],a = 0.35,v = 0.25,r = 0.02)
    movej([3.1772407787820423, -1.3382583359657791, -1.8919839161416614, -0.9513447344136342, -0.8656666216977125, -0.02491038285655351],a = 0.35,v = 0.25,r = 0.02)
    movej([3.089974316182326, -1.2509918733660625, -1.804717453541945, -0.8640782718139177, -0.778400159097996, 0.016118797282232086],a = 0.35,v = 0.25,r = 0.02)
    movej([3.002707853582609, -1.1637254107663462, -1.7174509909422286, -0.7768118092142013, -0.6911336964982795, -0.0711476653174844],a = 0.35,v = 0.25,r = 0.02)
    movej([2.9154413909828927, -1.0764589481666296, -1.630184528342512, -0.6895453466144849, -0.6038672338985631, 0.016118797282232086],a = 0.35,v = 0.25,r = 0.02)
    movej([2.8281749283831763, -0.9891924855669131, -1.5429180657427957, -0.6022788840147684, -0.5166007712988466, 0.10046197029329795],a = 0.35,v = 0.25,r = 0.02)
    movej([2.74090846578346, -0.9019260229671967, -1.455651603143079, -0.5150124214150519, -0.4293343086991301, 0.06820346949648314],a = 0.35,v = 0.25,r = 0.02)
    movej([2.653642003183743, -0.8146595603674802, -1.3683851405433627, -0.4277459588153354, -0.34206784609941365, -0.01906299310323335],a = 0.35,v = 0.25,r = 0.02)
    movej([2.5663755405840267, -0.9019260229671967, -1.455651603143079, -0.5150124214150519, -0.25480138349969716, 0.0],a = 0.35,v = 0.25,r = 0.02)
    movej([2.4791090779843103, -0.9891924855669131, -1.5429180657427957, -0.6022788840147684, -0.16753492089998068, 0.0],a = 0.35,v = 0.25,r = 0.02)
    movej([2.391842615384594, -1.0764589481666296, -1.630184528342512, -0.6895453466144849, -0.0802684583002642, 0.0],a = 0.35,v = 0.25,r = 0.02)
    movej([2.3045761527848776, -1.1637254107663462, -1.7174509909422286, -0.7768118092142013, 0.0, 0.0],a = 0.35,v = 0.25,r = 0.02)
    movej([2.2173096901851608, -1.2509918733660625, -1.804717453541945, -0.8640782718139177, 0.0, 0.0],a = 0.35,v = 0.25,r = 0.02)
    movej([2.1300432275854444, -1.3382583359657791, -1.8919839161416614, -0.9513447344136342, 0.0, 0.0],a = 0.35,v = 0.25,r = 0.02)
    movej([2.042776764985728, -1.4255247985654955, -1.979250378741378, -1.0386111970133507, 0.0, 0.0],a = 0.35,v = 0.25,r = 0.02)
    movej([1.9555103023860114, -1.512791261165212, -2.0665168413410946, -1.1258776596130673, 0.0, 0.0],a = 0.35,v = 0.25,r = 0.02)
    movej([1.868243839786295, -1.5707963267948966, -2.153783303940811, -1.2131441222127837, 0.0, 0.0],a = 0.35,v = 0.25,r = 0.02)
    movej([1.7809773771865784, -1.5707963267948966, -2.234021442552742, -1.3004105848125, 0.0, 0.0],a = 0.35,v = 0.25,r = 0.02)
    movej([1.693710914586862, -1.5707963267948966, -2.234021442552742, -1.3876770474122166, 0.0, 0.0],a = 0.35,v = 0.25,r = 0.02)
    movej([1.6064444519871457, -1.5707963267948966, -2.234021442552742, -1.474943510011933, 0.0, 0.0],a = 0.35,v = 0.25,r = 0.02)
    movej([1.519177989387429, -1.5707963267948966, -2.234021442552742, -1.5622099726116496, 0.0, 0.0],a = 0.35,v = 0.25,r = 0.02)
    movej([1.4319115267877127, -1.5707963267948966, -2.234021442552742, -1.5707963267948966, 0.0, 0.0],a = 0.35,v = 0.25,r = 0.02)
    movej([1.3446450641879961, -1.5707963267948966, -2.234021442552742, -1.5707963267948966, 0.0, 0.0],a = 0.35,v = 0.25,r = 0.02)
    movej([1.2573786015882797, -1.5707963267948966, -2.234021442552742, -1.5707963267948966, 0.0, 0.0],a = 0.35,v = 0.25,r = 0.02)
    movej([1.1701121389885631, -1.5707963267948966, -2.234021442552742, -1.5707963267948966, 0.0, 0.0],a = 0.35,v = 0.25,r = 0.02)
    movej([1.0828456763888468, -1.5707963267948966, -2.234021442552742, -1.5707963267948966, 0.0, 0.0],a = 0.35,v = 0.25,r = 0.02)
    movej([0.9955792137891303, -1.5707963267948966, -2.234021442552742, -1.5707963267948966, 0.0, 0.0],a = 0.35,v = 0.25,r = 0.02)
    movej([0.9083127511894138, -1.5707963267948966, -2.234021442552742, -1.5707963267948966, 0.0, 0.0],a = 0.35,v = 0.25,r = 0.02)
    movej([0.8210462885896973, -1.5707963267948966, -2.234021442552742, -1.5707963267948966, 0.0, 0.0],a = 0.35,v = 0.25,r = 0.02)
    movej([0.7337798259899808, -1.5707963267948966, -2.234021442552742, -1.5707963267948966, 0.0, 0.0],a = 0.35,v = 0.25,r = 0.02)
    movej([0.6465133633902643, -1.5707963267948966, -2.234021442552742, -1.5707963267948966, 0.0, 0.0],a = 0.35,v = 0.25,r = 0.02)
    movej([0.5592469007905478, -1.5707963267948966, -2.234021442552742, -1.5707963267948966, 0.0, 0.0],a = 0.35,v = 0.25,r = 0.02)
    movej([0.4719804381908314, -1.5707963267948966, -2.234021442552742, -1.5707963267948966, 0.0, 0.0],a = 0.35,v = 0.25,r = 0.02)
    movej([0.3847139755911149, -1.5707963267948966, -2.234021442552742, -1.5707963267948966, 0.0, 0.0],a = 0.35,v = 0.25,r = 0.02)
    movej([0.29744751299139843, -1.5707963267948966, -2.234021442552742, -1.5707963267948966, 0.0, 0.0],a = 0.35,v = 0.25,r = 0.02)
    movej([0.21018105039168195, -1.5707963267948966, -2.234021442552742, -1.5707963267948966, 0.0, 0.0],a = 0.35,v = 0.25,r = 0.02)
    movej([0.12291458779196547, -1.5707963267948966, -2.234021442552742, -1.5707963267948966, 0.0, 0.0],a = 0.35,v = 0.25,r = 0.02)
    movej([0.035648125192249, -1.5707963267948966, -2.234021442552742, -1.5707963267948966, 0.0, 0.0],a = 0.35,v = 0.25,r = 0.02)
    movej([0.0, -1.5707963267948966, -2.234021442552742, -1.5707963267948966, 0.0, 0.0],a = 0.35,v = 0.25)
    halt
    end
  end
end
